X: 11780
T: Elizabeth Kelly's Delight
R: slip jig
M: 9/8
K: Bminor
|:~B3 BAc BAF|~B3 BAF EFA|~B3 BAc BAF|ABA AFE EFA:|
|:dcB cBA ~B3|dcB cAF EFA|dcB cBA ~B3|ABA AFE EFA:|

